assets/post/images/crypt3.svg

<svg xmlns="http://www.w3.org/2000/svg" width="1595" height="1280" overflow="hidden"><defs><clipPath id="a"><path d="M713 154h1595v1280H713z"/></clipPath></defs><g clip-path="url(#a)" transform="translate(-713 -154)"><path fill-rule="evenodd" d="M1090.33 230.591h2.35l-7.95 35.381h1.3c2.03 0 4.3-.885 6.83-2.655q3.795-2.654 6.06-4.924c1.51-1.513 2.27-2.972 2.27-4.377q0-1.986-2.76-2.229l.45-1.986h13.13l.77 1.986a122 122 0 0 1-7.13 5.958l-10.05 7.781 3.97 14.63q.48 1.865.87 2.695c.26.554.55.966.89 1.237.34.27.79.405 1.36.405.7 0 1.54-.378 2.51-1.135.97-.756 2.08-1.851 3.32-3.283l2.31 2.27q-3.645 3.85-6.03 5.349-2.4 1.5-4.62 1.5-2.76 0-4.38-1.56t-2.55-5.208l-2.68-10.537q-.405-1.58-.81-2.189-.405-.608-.93-.81c-.35-.135-.97-.203-1.87-.203h-2.79l-4.22 19.859h-7.01l10.42-46.323q.525-2.35.75-3.668c.15-.878.22-1.655.22-2.33 0-1.135-.35-1.932-1.03-2.391-.69-.46-1.93-.716-3.71-.77l.48-2.108Z"/><text x="1072.94" y="281.869" fill-opacity="0" font-family="Arial,Arial_MSFontService,sans-serif" font-size="58.602">𝑘</text><path fill="#fdefe8" d="M800 975h418v235H800z"/><path fill="#d74514" fill-rule="evenodd" d="M987.67 1089.34c-3.107.37-5.883 1.5-8.328 3.38s-4.337 4.3-5.674 7.25q-2.007 4.44-2.006 9.75c0 2.89.446 5 1.337 6.32.892 1.33 2.351 1.99 4.377 1.99s3.891-.99 5.593-2.98 3.053-4.66 4.053-8.02q1.499-5.055 1.499-9.87c0-3.43-.284-6.04-.851-7.82m5.431-7.95h16.249l-1.7 7.54h-11.874v.16a15.3 15.3 0 0 1 2.674 4.87 17.5 17.5 0 0 1 .892 5.59c0 3.97-1.013 7.81-3.04 11.53q-3.039 5.565-7.902 8.37-4.864 2.79-11.267 2.79c-5.025 0-8.923-1.32-11.692-3.97s-4.154-6.32-4.154-11.02q0-4.905 1.601-9.12c1.067-2.81 2.56-5.3 4.478-7.48 1.918-2.17 4.066-3.93 6.444-5.29 2.377-1.35 5.113-2.35 8.206-2.99 3.094-.65 6.789-.98 11.085-.98"/><text x="961.287" y="1117.14" fill-opacity="0" font-family="Arial,Arial_MSFontService,sans-serif" font-size="40.852">𝝈</text><path fill="#d74514" fill-rule="evenodd" d="M1024.1 1108.56h3.4l-4.77 20.5c-.2.83-.33 1.48-.4 1.93-.07.46-.11.98-.11 1.55 0 .78.13 1.31.39 1.61s.63.45 1.1.45c.58 0 1.23-.28 1.94-.82.71-.55 1.56-1.38 2.53-2.49l2.15 2.15c-1.95 1.98-3.69 3.39-5.23 4.22-1.54.84-3.23 1.26-5.08 1.26-2.1 0-3.64-.52-4.62-1.55-.97-1.04-1.46-2.59-1.46-4.68q0-1.995.66-4.68l2.5-10.36q.69-2.835.69-4.47c0-.77-.19-1.32-.55-1.65-.37-.33-1.14-.55-2.31-.67l.44-1.97Zm-2.17-11.55h7.62l-1.55 7.3h-7.71Z"/><text x="1013.94" y="1133.68" fill-opacity="0" font-family="Arial,Arial_MSFontService,sans-serif" font-size="41.908">𝒊</text><path fill="#fdefe8" fill-rule="evenodd" d="M859 533c0-84.5 68.277-153 152.5-153 84.22 0 152.5 68.5 152.5 153s-68.28 153-152.5 153C927.277 686 859 617.5 859 533"/><path fill="#d74514" fill-rule="evenodd" d="M1015.09 526.696c-1.44 0-2.78 1.02-4.04 3.059-1.25 2.04-2.29 4.898-3.1 8.572l-4.66 21.317c3.19-.567 5.99-2.087 8.39-4.559q3.615-3.708 5.55-9.483 1.95-5.775 1.95-11.855c0-2.215-.36-3.944-1.07-5.187-.72-1.243-1.73-1.864-3.02-1.864m-19.173-4.256 2.635 3.324q-6.039 5.795-8.997 11.55-2.96 5.755-2.959 11.712 0 4.053 1.702 6.606t5.35 3.769l3.728-17.345c1.405-6.539 3.684-11.436 6.854-14.692 3.16-3.255 7.02-4.883 11.59-4.883q6.645 0 10.41 3.647c2.51 2.432 3.77 5.823 3.77 10.173 0 5.052-1.15 9.672-3.44 13.86-2.3 4.188-5.56 7.484-9.77 9.889-4.22 2.404-8.98 3.674-14.31 3.809l-3.726 16.981h-9.848l3.81-17.345q-8.511-.77-13.05-4.54-4.539-3.768-4.539-9.969 0-7.498 5.268-14.266 5.27-6.768 15.522-12.28"/><text x="975.127" y="573.54" fill-opacity="0" font-family="Arial,Arial_MSFontService,sans-serif" font-size="58.4">𝝋</text><path fill="#fdefe8" fill-rule="evenodd" d="M1579 1092c0-84.5 68.28-153 152.5-153s152.5 68.5 152.5 153-68.28 153-152.5 153-152.5-68.5-152.5-153"/><path fill="#d74514" fill-rule="evenodd" d="M1727.17 1065.38h9.8l-11.83 53.54c3.19-.63 5.96-1.92 8.33-3.89 2.36-1.98 4.18-4.53 5.45-7.66 1.27-3.14 1.9-6.57 1.9-10.3 0-2.24-.15-4.41-.46-6.5q-.465-3.15-1.32-5.49l.49-2.68h10.94c.51 2.27.77 4.77.77 7.5 0 6-1.09 11.51-3.26 16.53-2.18 5.03-5.25 9.01-9.2 11.94-3.96 2.93-8.79 4.52-14.49 4.76l-3.73 16.98h-9.85l3.77-17.1c-5.46-.43-9.62-1.78-12.48-4.03-2.87-2.26-4.3-5.25-4.3-8.98 0-.84.08-1.85.23-3.04.14-1.19.34-2.3.58-3.32l2.11-8.76q.285-1.125.45-2.37c.1-.82.16-1.52.16-2.08 0-.92-.15-1.62-.45-2.09-.29-.47-.79-.71-1.5-.71-.7 0-1.42.23-2.14.69-.73.46-1.63 1.24-2.68 2.35l-2.92-2.88c1.7-1.59 3.25-2.83 4.64-3.71s2.71-1.48 3.95-1.82q1.875-.51 4.26-.51c2.65 0 4.65.66 6.02 1.99 1.36 1.32 2.04 3.27 2.04 5.83 0 2-.29 4.19-.89 6.57l-2.06 8.19c-.57 2.24-.86 4.44-.86 6.6 0 2.22.57 3.96 1.71 5.23 1.13 1.27 2.85 2.11 5.14 2.51Z"/><text x="1691.54" y="1130.77" fill-opacity="0" font-family="Arial,Arial_MSFontService,sans-serif" font-size="74.732">𝝍</text><path d="M1218.5 1087.92h319.62v9.16H1218.5Zm315.04-18.34 45.83 22.92-45.83 22.92Z"/><path d="M1218.21 1088.19h82.5l-4.58 4.58V533.5l4.58 4.583h-94.96v-9.166h99.55v568.433h-87.09Zm-7.88-531.773L1164.5 533.5l45.83-22.917Zm-351.165-27.5H713.417v568.438h45.833v-9.167H718l4.583 4.583V533.5L718 538.083h141.165Zm-104.499 586.771 45.834-22.917-45.834-22.916Zm1129.834-18.605h264.321v-9.167H1884.5Zm259.738 18.333 45.833-22.916-45.834-22.917ZM1007.39 1433.75l-2.02-181.95 9.17-.1 2.02 181.95Zm-20.297-177.17 22.407-46.08 23.42 45.58Zm749.99 167v-136.833h-9.166v136.833Zm18.334-132.25-22.917-45.833-22.916 45.833ZM1016.08 154.5v185.253h-9.16V154.5Zm18.34 180.67-22.92 45.833-22.916-45.833Z"/><path fill-rule="evenodd" d="M1081.89 1303.73h2.35l-7.94 35.38h1.3c2.02 0 4.3-.89 6.82-2.66 2.53-1.76 4.55-3.41 6.06-4.92 1.52-1.51 2.27-2.97 2.27-4.38 0-1.32-.92-2.06-2.75-2.23l.44-1.98h13.13l.77 1.98c-2.24 2.03-4.62 4.02-7.13 5.96l-10.05 7.78 3.97 14.63q.495 1.875.87 2.7c.26.55.56.97.9 1.24.33.27.79.4 1.35.4.71 0 1.54-.38 2.52-1.13.97-.76 2.08-1.85 3.32-3.29l2.31 2.27c-2.43 2.57-4.45 4.35-6.04 5.35q-2.385 1.5-4.62 1.5-2.76 0-4.38-1.56c-1.08-1.04-1.93-2.77-2.55-5.21l-2.67-10.53c-.28-1.06-.55-1.79-.82-2.19q-.405-.615-.93-.81-.525-.21-1.86-.21h-2.8l-4.21 19.86h-7.01l10.41-46.32c.35-1.57.6-2.79.75-3.67s.22-1.65.22-2.33c0-1.13-.34-1.93-1.03-2.39s-1.92-.71-3.71-.77l.49-2.11Z"/><text x="1064.51" y="1355.01" fill-opacity="0" font-family="Arial,Arial_MSFontService,sans-serif" font-size="58.602">𝑘</text><path fill-rule="evenodd" d="M1813.71 1303.73h2.35l-7.94 35.38h1.3c2.02 0 4.3-.89 6.83-2.66 2.52-1.76 4.54-3.41 6.06-4.92 1.51-1.51 2.26-2.97 2.26-4.38 0-1.32-.91-2.06-2.75-2.23l.44-1.98h13.14l.77 1.98a119 119 0 0 1-7.14 5.96l-10.05 7.78 3.97 14.63c.33 1.25.62 2.15.88 2.7.25.55.55.97.89 1.24.33.27.79.4 1.35.4.71 0 1.54-.38 2.52-1.13.97-.76 2.08-1.85 3.32-3.29l2.31 2.27c-2.43 2.57-4.44 4.35-6.04 5.35q-2.385 1.5-4.62 1.5c-1.84 0-3.29-.52-4.38-1.56-1.08-1.04-1.93-2.77-2.55-5.21l-2.67-10.53q-.405-1.59-.81-2.19c-.27-.41-.58-.68-.94-.81q-.525-.21-1.86-.21h-2.8l-4.21 19.86h-7.01l10.41-46.32c.35-1.57.6-2.79.75-3.67s.23-1.65.23-2.33c0-1.13-.35-1.93-1.04-2.39s-1.92-.71-3.71-.77l.49-2.11Z"/><text x="1796.33" y="1355.01" fill-opacity="0" font-family="Arial,Arial_MSFontService,sans-serif" font-size="58.602">𝑘</text><path fill-rule="evenodd" d="M2213.56 1082.85h28.82l.77 2.03-19.34 22.21c-3.75 4.29-7.01 7.94-9.76 10.94l.24.28h9.16c1.62 0 2.86-.09 3.73-.26.86-.18 1.62-.51 2.27-.99.65-.49 1.31-1.23 2-2.21.69-.99 1.55-2.54 2.58-4.64h3.6l-2.47 11.39h-29.34l-.77-1.99 22.17-25.53c3.13-3.6 5.43-6.15 6.89-7.66l-.25-.29h-9.48c-1.4 0-2.43.1-3.08.29s-1.3.52-1.94.99c-.65.47-1.35 1.18-2.09 2.11s-1.58 2.26-2.49 3.99h-3.61Z"/><text x="2205.05" y="1116.75" fill-opacity="0" font-family="Arial,Arial_MSFontService,sans-serif" font-size="38.744">𝑧</text><path fill-rule="evenodd" d="M2256.42 1108.33h1.46l-4.41 19.83c-.28 1.17-.47 2.11-.58 2.8-.11.7-.16 1.32-.16 1.88 0 .75.15 1.3.46 1.64s.77.5 1.38.5c.36 0 .72-.07 1.08-.2.35-.14.74-.36 1.14-.66.41-.3.86-.68 1.34-1.15.49-.46 1.03-1.02 1.63-1.68l2.02 1.97a46 46 0 0 1-2.81 2.66q-1.275 1.095-2.4 1.77c-.76.46-1.49.79-2.22.99q-1.08.3-2.31.3-1.125 0-2.04-.42a4.7 4.7 0 0 1-1.56-1.15 5 5 0 0 1-1.01-1.74c-.24-.68-.36-1.42-.36-2.23 0-.66.08-1.47.24-2.45.16-.97.36-2.03.61-3.17s.52-2.34.82-3.59c.29-1.25.59-2.49.87-3.72.29-1.23.55-2.42.78-3.56s.39-2.18.49-3.11c.04-.16.06-.32.06-.47v-.4c-.04-.77-.31-1.34-.82-1.7-.51-.35-1.4-.55-2.69-.59l.35-2.03Zm-1.73-12.01h5.96l-1.46 6.41h-5.9Z"/><text x="2247.07" y="1133.64" fill-opacity="0" font-family="Arial,Arial_MSFontService,sans-serif" font-size="42.652">𝑖</text></g></svg>

<svg width="1595" height="1280" xmlns="http://www.w3.org/2000/svg" xmlns:xlink="http://www.w3.org/1999/xlink" overflow="hidden"><defs><clipPath id="clip0"><rect x="713" y="154" width="1595" height="1280"/></clipPath></defs><g clip-path="url(#clip0)" transform="translate(-713 -154)"><path d="M1090.33 230.591 1092.68 230.591 1084.73 265.972 1086.03 265.972C1088.06 265.972 1090.33 265.087 1092.86 263.317 1095.39 261.548 1097.41 259.906 1098.92 258.393 1100.43 256.88 1101.19 255.421 1101.19 254.016 1101.19 252.692 1100.27 251.949 1098.43 251.787L1098.88 249.801 1112.01 249.801 1112.78 251.787C1110.54 253.814 1108.16 255.799 1105.65 257.745L1095.6 265.526 1099.57 280.156C1099.89 281.399 1100.18 282.298 1100.44 282.851 1100.7 283.405 1100.99 283.817 1101.33 284.088 1101.67 284.358 1102.12 284.493 1102.69 284.493 1103.39 284.493 1104.23 284.115 1105.2 283.358 1106.17 282.602 1107.28 281.507 1108.52 280.075L1110.83 282.345C1108.4 284.912 1106.39 286.695 1104.8 287.694 1103.2 288.694 1101.66 289.194 1100.18 289.194 1098.34 289.194 1096.88 288.674 1095.8 287.634 1094.72 286.593 1093.87 284.858 1093.25 282.426L1090.57 271.889C1090.3 270.835 1090.03 270.106 1089.76 269.7 1089.49 269.295 1089.18 269.025 1088.83 268.89 1088.48 268.755 1087.86 268.687 1086.96 268.687L1084.17 268.687 1079.95 288.546 1072.94 288.546 1083.36 242.223C1083.71 240.656 1083.96 239.433 1084.11 238.555 1084.26 237.677 1084.33 236.9 1084.33 236.225 1084.33 235.09 1083.98 234.293 1083.3 233.834 1082.61 233.374 1081.37 233.118 1079.59 233.064L1080.07 230.956Z" fill-rule="evenodd"/><text fill="#000000" fill-opacity="0" font-family="Arial,Arial_MSFontService,sans-serif" font-size="58.6025" x="1072.94" y="281.869">𝑘</text><rect x="800" y="975" width="418" height="235" fill="#FDEFE8"/><path d="M987.67 1089.34C984.563 1089.71 981.787 1090.84 979.342 1092.72 976.897 1094.6 975.005 1097.02 973.668 1099.97 972.33 1102.93 971.662 1106.18 971.662 1109.72 971.662 1112.61 972.108 1114.72 972.999 1116.04 973.891 1117.37 975.35 1118.03 977.376 1118.03 979.402 1118.03 981.267 1117.04 982.969 1115.05 984.671 1113.06 986.022 1110.39 987.022 1107.03 988.021 1103.66 988.521 1100.37 988.521 1097.16 988.521 1093.73 988.237 1091.12 987.67 1089.34ZM993.101 1081.39 1009.35 1081.39 1007.65 1088.93 995.776 1088.93 995.776 1089.09C996.964 1090.55 997.856 1092.17 998.45 1093.96 999.045 1095.74 999.342 1097.6 999.342 1099.55 999.342 1103.52 998.329 1107.36 996.302 1111.08 994.276 1114.79 991.642 1117.58 988.4 1119.45 985.157 1121.31 981.402 1122.24 977.133 1122.24 972.108 1122.24 968.21 1120.92 965.441 1118.27 962.671 1115.62 961.287 1111.95 961.287 1107.25 961.287 1103.98 961.82 1100.94 962.888 1098.13 963.955 1095.32 965.448 1092.83 967.366 1090.65 969.284 1088.48 971.432 1086.72 973.81 1085.36 976.187 1084.01 978.923 1083.01 982.016 1082.37 985.11 1081.72 988.805 1081.39 993.101 1081.39Z" fill="#D74514" fill-rule="evenodd"/><text fill="#000000" fill-opacity="0" font-family="Arial,Arial_MSFontService,sans-serif" font-size="40.8516" x="961.287" y="1117.14">𝝈</text><path d="M1024.1 1108.56 1027.5 1108.56 1022.73 1129.06C1022.53 1129.89 1022.4 1130.54 1022.33 1130.99 1022.26 1131.45 1022.22 1131.97 1022.22 1132.54 1022.22 1133.32 1022.35 1133.85 1022.61 1134.15 1022.87 1134.45 1023.24 1134.6 1023.71 1134.6 1024.29 1134.6 1024.94 1134.32 1025.65 1133.78 1026.36 1133.23 1027.21 1132.4 1028.18 1131.29L1030.33 1133.44C1028.38 1135.42 1026.64 1136.83 1025.1 1137.66 1023.56 1138.5 1021.87 1138.92 1020.02 1138.92 1017.92 1138.92 1016.38 1138.4 1015.4 1137.37 1014.43 1136.33 1013.94 1134.78 1013.94 1132.69 1013.94 1131.36 1014.16 1129.8 1014.6 1128.01L1017.1 1117.65C1017.56 1115.76 1017.79 1114.27 1017.79 1113.18 1017.79 1112.41 1017.6 1111.86 1017.24 1111.53 1016.87 1111.2 1016.1 1110.98 1014.93 1110.86L1015.37 1108.89ZM1021.93 1097.01 1029.55 1097.01 1028 1104.31 1020.29 1104.31Z" fill="#D74514" fill-rule="evenodd"/><text fill="#000000" fill-opacity="0" font-family="Arial,Arial_MSFontService,sans-serif" font-size="41.9077" x="1013.94" y="1133.68">𝒊</text><path d="M859 533C859 448.5 927.277 380 1011.5 380 1095.72 380 1164 448.5 1164 533 1164 617.5 1095.72 686 1011.5 686 927.277 686 859 617.5 859 533Z" fill="#FDEFE8" fill-rule="evenodd"/><path d="M1015.09 526.696C1013.65 526.696 1012.31 527.716 1011.05 529.755 1009.8 531.795 1008.76 534.653 1007.95 538.327L1003.29 559.644C1006.48 559.077 1009.28 557.557 1011.68 555.085 1014.09 552.613 1015.94 549.452 1017.23 545.602 1018.53 541.752 1019.18 537.8 1019.18 533.747 1019.18 531.532 1018.82 529.803 1018.11 528.56 1017.39 527.317 1016.38 526.696 1015.09 526.696ZM995.917 522.44 998.552 525.764C994.526 529.627 991.527 533.477 989.555 537.314 987.582 541.15 986.596 545.055 986.596 549.026 986.596 551.728 987.163 553.93 988.298 555.632 989.433 557.334 991.216 558.591 993.648 559.401L997.376 542.056C998.781 535.517 1001.06 530.62 1004.23 527.364 1007.39 524.109 1011.25 522.481 1015.82 522.481 1020.25 522.481 1023.72 523.697 1026.23 526.128 1028.74 528.56 1030 531.951 1030 536.301 1030 541.353 1028.85 545.973 1026.56 550.161 1024.26 554.349 1021 557.645 1016.79 560.05 1012.57 562.454 1007.81 563.724 1002.48 563.859L998.754 580.84 988.906 580.84 992.716 563.495C987.042 562.981 982.692 561.468 979.666 558.955 976.64 556.443 975.127 553.12 975.127 548.986 975.127 543.987 976.883 539.232 980.395 534.72 983.908 530.208 989.082 526.115 995.917 522.44Z" fill="#D74514" fill-rule="evenodd"/><text fill="#000000" fill-opacity="0" font-family="Arial,Arial_MSFontService,sans-serif" font-size="58.3999" x="975.127" y="573.54">𝝋</text><path d="M1579 1092C1579 1007.5 1647.28 939 1731.5 939 1815.72 939 1884 1007.5 1884 1092 1884 1176.5 1815.72 1245 1731.5 1245 1647.28 1245 1579 1176.5 1579 1092Z" fill="#FDEFE8" fill-rule="evenodd"/><path d="M1727.17 1065.38 1736.97 1065.38 1725.14 1118.92C1728.33 1118.29 1731.1 1117 1733.47 1115.03 1735.83 1113.05 1737.65 1110.5 1738.92 1107.37 1740.19 1104.23 1740.82 1100.8 1740.82 1097.07 1740.82 1094.83 1740.67 1092.66 1740.36 1090.57 1740.05 1088.47 1739.61 1086.64 1739.04 1085.08L1739.53 1082.4 1750.47 1082.4C1750.98 1084.67 1751.24 1087.17 1751.24 1089.9 1751.24 1095.9 1750.15 1101.41 1747.98 1106.43 1745.8 1111.46 1742.73 1115.44 1738.78 1118.37 1734.82 1121.3 1729.99 1122.89 1724.29 1123.13L1720.56 1140.11 1710.71 1140.11 1714.48 1123.01C1709.02 1122.58 1704.86 1121.23 1702 1118.98 1699.13 1116.72 1697.7 1113.73 1697.7 1110 1697.7 1109.16 1697.78 1108.15 1697.93 1106.96 1698.07 1105.77 1698.27 1104.66 1698.51 1103.64L1700.62 1094.88C1700.81 1094.13 1700.96 1093.34 1701.07 1092.51 1701.17 1091.69 1701.23 1090.99 1701.23 1090.43 1701.23 1089.51 1701.08 1088.81 1700.78 1088.34 1700.49 1087.87 1699.99 1087.63 1699.28 1087.63 1698.58 1087.63 1697.86 1087.86 1697.14 1088.32 1696.41 1088.78 1695.51 1089.56 1694.46 1090.67L1691.54 1087.79C1693.24 1086.2 1694.79 1084.96 1696.18 1084.08 1697.57 1083.2 1698.89 1082.6 1700.13 1082.26 1701.38 1081.92 1702.8 1081.75 1704.39 1081.75 1707.04 1081.75 1709.04 1082.41 1710.41 1083.74 1711.77 1085.06 1712.45 1087.01 1712.45 1089.57 1712.45 1091.57 1712.16 1093.76 1711.56 1096.14L1709.5 1104.33C1708.93 1106.57 1708.64 1108.77 1708.64 1110.93 1708.64 1113.15 1709.21 1114.89 1710.35 1116.16 1711.48 1117.43 1713.2 1118.27 1715.49 1118.67Z" fill="#D74514" fill-rule="evenodd"/><text fill="#000000" fill-opacity="0" font-family="Arial,Arial_MSFontService,sans-serif" font-size="74.7324" x="1691.54" y="1130.77">𝝍</text><path d="M1218.5 1087.92 1538.12 1087.92 1538.12 1097.08 1218.5 1097.08ZM1533.54 1069.58 1579.37 1092.5 1533.54 1115.42Z"/><path d="M1218.21 1088.19 1300.71 1088.19 1296.13 1092.77 1296.13 533.5 1300.71 538.083 1205.75 538.083 1205.75 528.917 1305.3 528.917 1305.3 1097.35 1218.21 1097.35ZM1210.33 556.417 1164.5 533.5 1210.33 510.583Z"/><path d="M0-4.58333 145.748-4.58333 145.748 563.855 99.9152 563.855 99.9152 554.688 141.165 554.688 136.582 559.271 136.582 0 141.165 4.58333 0 4.58333ZM104.499 582.188 58.6652 559.271 104.499 536.355Z" transform="matrix(-1 1.22465e-16 1.22465e-16 1 859.165 533.5)"/><path d="M5.41312e-06-4.58333 264.321-4.58302 264.321 4.58365-5.41312e-06 4.58333ZM259.738-22.9164 305.571 0.000360892 259.737 22.917Z" transform="matrix(1 0 0 -1 1884.5 1092.5)"/><path d="M1007.39 1433.75 1005.37 1251.8 1014.54 1251.7 1016.56 1433.65ZM987.093 1256.58 1009.5 1210.5 1032.92 1256.08Z"/><path d="M4.58333-9.28829e-06 4.58361 136.833-4.58306 136.833-4.58333 9.28829e-06ZM22.9169 132.25 0.000360892 178.083-22.9164 132.25Z" transform="matrix(1 0 0 -1 1732.5 1423.58)"/><path d="M1016.08 154.5 1016.08 339.753 1006.92 339.753 1006.92 154.5ZM1034.42 335.17 1011.5 381.003 988.584 335.17Z"/><path d="M1081.89 1303.73 1084.24 1303.73 1076.3 1339.11 1077.6 1339.11C1079.62 1339.11 1081.9 1338.22 1084.42 1336.45 1086.95 1334.69 1088.97 1333.04 1090.48 1331.53 1092 1330.02 1092.75 1328.56 1092.75 1327.15 1092.75 1325.83 1091.83 1325.09 1090 1324.92L1090.44 1322.94 1103.57 1322.94 1104.34 1324.92C1102.1 1326.95 1099.72 1328.94 1097.21 1330.88L1087.16 1338.66 1091.13 1353.29C1091.46 1354.54 1091.75 1355.44 1092 1355.99 1092.26 1356.54 1092.56 1356.96 1092.9 1357.23 1093.23 1357.5 1093.69 1357.63 1094.25 1357.63 1094.96 1357.63 1095.79 1357.25 1096.77 1356.5 1097.74 1355.74 1098.85 1354.65 1100.09 1353.21L1102.4 1355.48C1099.97 1358.05 1097.95 1359.83 1096.36 1360.83 1094.77 1361.83 1093.23 1362.33 1091.74 1362.33 1089.9 1362.33 1088.44 1361.81 1087.36 1360.77 1086.28 1359.73 1085.43 1358 1084.81 1355.56L1082.14 1345.03C1081.86 1343.97 1081.59 1343.24 1081.32 1342.84 1081.05 1342.43 1080.74 1342.16 1080.39 1342.03 1080.04 1341.89 1079.42 1341.82 1078.53 1341.82L1075.73 1341.82 1071.52 1361.68 1064.51 1361.68 1074.92 1315.36C1075.27 1313.79 1075.52 1312.57 1075.67 1311.69 1075.82 1310.81 1075.89 1310.04 1075.89 1309.36 1075.89 1308.23 1075.55 1307.43 1074.86 1306.97 1074.17 1306.51 1072.94 1306.26 1071.15 1306.2L1071.64 1304.09Z" fill-rule="evenodd"/><text fill="#000000" fill-opacity="0" font-family="Arial,Arial_MSFontService,sans-serif" font-size="58.6025" x="1064.51" y="1355.01">𝑘</text><path d="M1813.71 1303.73 1816.06 1303.73 1808.12 1339.11 1809.42 1339.11C1811.44 1339.11 1813.72 1338.22 1816.25 1336.45 1818.77 1334.69 1820.79 1333.04 1822.31 1331.53 1823.82 1330.02 1824.57 1328.56 1824.57 1327.15 1824.57 1325.83 1823.66 1325.09 1821.82 1324.92L1822.26 1322.94 1835.4 1322.94 1836.17 1324.92C1833.92 1326.95 1831.55 1328.94 1829.03 1330.88L1818.98 1338.66 1822.95 1353.29C1823.28 1354.54 1823.57 1355.44 1823.83 1355.99 1824.08 1356.54 1824.38 1356.96 1824.72 1357.23 1825.05 1357.5 1825.51 1357.63 1826.07 1357.63 1826.78 1357.63 1827.61 1357.25 1828.59 1356.5 1829.56 1355.74 1830.67 1354.65 1831.91 1353.21L1834.22 1355.48C1831.79 1358.05 1829.78 1359.83 1828.18 1360.83 1826.59 1361.83 1825.05 1362.33 1823.56 1362.33 1821.72 1362.33 1820.27 1361.81 1819.18 1360.77 1818.1 1359.73 1817.25 1358 1816.63 1355.56L1813.96 1345.03C1813.69 1343.97 1813.42 1343.24 1813.15 1342.84 1812.88 1342.43 1812.57 1342.16 1812.21 1342.03 1811.86 1341.89 1811.24 1341.82 1810.35 1341.82L1807.55 1341.82 1803.34 1361.68 1796.33 1361.68 1806.74 1315.36C1807.09 1313.79 1807.34 1312.57 1807.49 1311.69 1807.64 1310.81 1807.72 1310.04 1807.72 1309.36 1807.72 1308.23 1807.37 1307.43 1806.68 1306.97 1805.99 1306.51 1804.76 1306.26 1802.97 1306.2L1803.46 1304.09Z" fill-rule="evenodd"/><text fill="#000000" fill-opacity="0" font-family="Arial,Arial_MSFontService,sans-serif" font-size="58.6025" x="1796.33" y="1355.01">𝑘</text><path d="M2213.56 1082.85 2242.38 1082.85 2243.15 1084.88 2223.81 1107.09C2220.06 1111.38 2216.8 1115.03 2214.05 1118.03L2214.29 1118.31 2223.45 1118.31C2225.07 1118.31 2226.31 1118.22 2227.18 1118.05 2228.04 1117.87 2228.8 1117.54 2229.45 1117.06 2230.1 1116.57 2230.76 1115.83 2231.45 1114.85 2232.14 1113.86 2233 1112.31 2234.03 1110.21L2237.63 1110.21 2235.16 1121.6 2205.82 1121.6 2205.05 1119.61 2227.22 1094.08C2230.35 1090.48 2232.65 1087.93 2234.11 1086.42L2233.86 1086.13 2224.38 1086.13C2222.98 1086.13 2221.95 1086.23 2221.3 1086.42 2220.65 1086.61 2220 1086.94 2219.36 1087.41 2218.71 1087.88 2218.01 1088.59 2217.27 1089.52 2216.53 1090.45 2215.69 1091.78 2214.78 1093.51L2211.17 1093.51Z" fill-rule="evenodd"/><text fill="#000000" fill-opacity="0" font-family="Arial,Arial_MSFontService,sans-serif" font-size="38.7441" x="2205.05" y="1116.75">𝑧</text><path d="M2256.42 1108.33 2257.88 1108.33 2253.47 1128.16C2253.19 1129.33 2253 1130.27 2252.89 1130.96 2252.78 1131.66 2252.73 1132.28 2252.73 1132.84 2252.73 1133.59 2252.88 1134.14 2253.19 1134.48 2253.5 1134.82 2253.96 1134.98 2254.57 1134.98 2254.93 1134.98 2255.29 1134.91 2255.65 1134.78 2256 1134.64 2256.39 1134.42 2256.79 1134.12 2257.2 1133.82 2257.65 1133.44 2258.13 1132.97 2258.62 1132.51 2259.16 1131.95 2259.76 1131.29L2261.78 1133.26C2260.75 1134.31 2259.81 1135.2 2258.97 1135.92 2258.12 1136.65 2257.32 1137.24 2256.57 1137.69 2255.81 1138.15 2255.08 1138.48 2254.35 1138.68 2253.63 1138.88 2252.86 1138.98 2252.04 1138.98 2251.29 1138.98 2250.61 1138.84 2250 1138.56 2249.4 1138.28 2248.87 1137.9 2248.44 1137.41 2248 1136.92 2247.66 1136.34 2247.43 1135.67 2247.19 1134.99 2247.07 1134.25 2247.07 1133.44 2247.07 1132.78 2247.15 1131.97 2247.31 1130.99 2247.47 1130.02 2247.67 1128.96 2247.92 1127.82 2248.17 1126.68 2248.44 1125.48 2248.74 1124.23 2249.03 1122.98 2249.33 1121.74 2249.61 1120.51 2249.9 1119.28 2250.16 1118.09 2250.39 1116.95 2250.62 1115.81 2250.78 1114.77 2250.88 1113.84 2250.92 1113.68 2250.94 1113.52 2250.94 1113.37 2250.94 1113.23 2250.94 1113.09 2250.94 1112.97 2250.9 1112.2 2250.63 1111.63 2250.12 1111.27 2249.61 1110.92 2248.72 1110.72 2247.43 1110.68L2247.78 1108.65ZM2254.69 1096.32 2260.65 1096.32 2259.19 1102.73 2253.29 1102.73Z" fill-rule="evenodd"/><text fill="#000000" fill-opacity="0" font-family="Arial,Arial_MSFontService,sans-serif" font-size="42.6523" x="2247.07" y="1133.64">𝑖</text></g></svg>
